X:37
T: Ich ging einstmals spazieren (Band 1), S. 117
N: P0811
O: Lothringen
S: PINCK, Louis: Verklingende Weisen, Bd 1, Metz 1928]
R: verbotene Liebe, Tod]
M: 4/4
L: 1/16
K: F
C4 | F4G4c4B2AG | A2G2F4z4
G4 | F2F2c2c2B4c2d2 | c8z4
c4 | c4B2G2F4G2A2 | B4c4G4
F2d2 | c4A2F2c4B2G2 | F8z4

